X:80
T:Untitled Polka
C:Ed Yother
C:http://edyother.com
M:2/4
R:Polka
L:1/8
K:D
af/f/ ed | ef ed | Bg/g/ gf | fe fg |
af/f/ ed | ef ed | Bg BA | EF D2 :|
|: EF DE | FA dB/B/ | Bg BA | Bc BA |
EF DE | FA dB/B/ | Bg BA | EF D2 :|

%%newpage
%%scale .75
%%staffsep 35

